art/dp/systems/auto-allgames.svg

<svg enable-background="new 0 0 3839 665.43" height="666" viewBox="0 0 3840 666.00001" width="3840" xmlns="http://www.w3.org/2000/svg"><g transform="scale(1.0002605 1.00085655523)"><path d="m1279.67 614.24h51.18v-102.37-102.38h-51.18v-51.18h-153.56v-204.75-102.37h-51.19v-51.19h-153.56v51.19h-51.19v102.37 358.31 102.37h51.19v51.19h102.37 51.19 204.75z" fill="#120f26"/><path d="m1074.92 511.87v-358.31h-153.56v460.68h102.37 51.19 204.75v-102.37z" fill="#e22b17"/><path d="m1074.92 409.49v-358.3h-153.56v460.68h102.37 51.19 204.75v-102.38z" fill="#ffda40"/><path d="m870.17 614.24h51.19v-102.37-102.38h-51.19v-51.18h-153.56v-204.75-102.37h-51.18v-51.19h-153.56v51.19h-51.19v102.37 358.31 102.37h51.19v51.19h102.37 51.19 204.74z" fill="#120f26"/><path d="m665.43 511.87v-358.31h-153.56v460.68h102.37 51.19 204.74v-102.37z" fill="#e22b17"/><path d="m665.43 409.49v-358.3h-153.56v460.68h102.37 51.19 204.74v-102.38z" fill="#ffda40"/><path d="m460.68 665.43v-51.19h51.19v-102.37-307.12-102.38h-51.19v-51.18h-51.19v-51.19h-307.12v51.19h-51.18v51.18h-51.19v102.38 307.12 102.37h51.19v51.19h153.56v-51.19h51.18 51.19v51.19z" fill="#120f26"/><path d="m409.49 204.75v-51.19h-307.12v51.19h-51.18v409.49h153.56v-102.37h102.37v102.37h153.56v-409.49zm-204.74 204.74v-153.56h102.37v153.56z" fill="#e22b17"/><path d="m409.49 102.37v-51.18h-307.12v51.19h-51.18v409.49h153.56v-102.38h102.37v102.37h153.56v-409.49zm-204.74 204.75v-153.56h102.37v153.56z" fill="#ffda40"/><path d="m2968.83 665.43h102.37 51.19 204.74v-51.19h51.19v-102.37-102.38h-51.19v-51.18-51.19-51.19h51.19v-102.37-102.37h-51.19v-51.19h-204.74-51.19-102.37v51.19h-51.19v102.37 358.31 102.37h51.19z" fill="#120f26"/><path d="m3327.13 255.93v-102.37h-204.74-51.19-102.37v460.68h102.37 51.19 204.74v-102.37h-204.74v-51.19h153.56v-102.37h-153.56v-102.38z" fill="#e22b17"/><path d="m3327.13 153.56v-102.37h-204.74-51.19-102.37v460.68h102.37 51.19 204.74v-102.38h-204.74v-51.18h153.56v-102.38h-153.56v-102.37z" fill="#ffda40"/><path d="m1893.91 563.05h51.18v-102.37-102.37-51.19-51.19-51.18-102.38h-51.18v-51.18h-51.19v-51.19h-307.12v51.19h-51.19v51.18h-51.18v102.38 255.93 102.37h51.18v51.19h51.19v51.19h307.12v-51.19h51.19z" fill="#120f26"/><path d="m1893.91 307.12v-102.37h-51.19v-51.19h-307.12v51.19h-51.19v358.3h51.19v51.19h307.12v-51.19h51.19v-204.74h-51.19-102.37-51.19v102.37h51.19v51.19h-102.38v-255.94h102.38v51.19z" fill="#e22b17"/><path d="m1893.91 204.75v-102.38h-51.19v-51.18h-307.12v51.18h-51.19v358.31h51.19v51.19h307.12v-51.19h51.19v-204.75h-51.19-102.37-51.19v102.38h51.19v51.18h-102.38v-255.93h102.38v51.19z" fill="#ffda40"/><path d="m2405.77 665.43h153.56v-51.19h51.19v-102.37h102.37v102.37h51.19v51.19h153.56v-51.19h51.19v-102.37-358.31-102.37h-51.19v-51.19h-153.56v51.19h-51.19v51.18 51.19h-51.18-51.19v-51.19-51.18h-51.19v-51.19h-153.56v51.19h-51.18v102.37 358.31 102.37h51.18z" fill="#120f26"/><path d="m2764.08 153.56v102.37h-51.19v51.19h-102.37v-51.19h-51.19v-102.37h-153.56v460.68h153.56v-204.75h51.19v51.19h102.37v-51.19h51.19v204.75h153.56v-460.68z" fill="#e22b17"/><path d="m2764.08 51.19v102.37h-51.19v51.19h-102.37v-51.19h-51.19v-102.37h-153.56v460.68h153.56v-204.75h51.19v51.19h102.37v-51.19h51.19v204.75h153.56v-460.68z" fill="#ffda40"/><path d="m2354.59 665.43v-51.19h51.18v-102.37-307.12-102.38h-51.18v-51.18h-51.19v-51.19h-307.12v51.19h-51.19v51.18h-51.18v102.38 307.12 102.37h51.18v51.19h153.56v-51.19h51.19 51.19v51.19z" fill="#120f26"/><path d="m2303.4 204.75v-51.19h-307.12v51.19h-51.19v409.49h153.56v-102.37h102.37v102.37h153.56v-409.49zm-204.75 204.74v-153.56h102.37v153.56z" fill="#e22b17"/><path d="m2303.4 102.37v-51.18h-307.12v51.19h-51.19v409.49h153.56v-102.38h102.37v102.37h153.56v-409.49zm-204.75 204.75v-153.56h102.37v153.56z" fill="#ffda40"/><path d="m3429.51 614.24v51.19h307.12v-51.19h51.18v-51.19h51.19v-102.37-51.19-102.37-102.37-102.38h-51.19v-51.18h-51.18v-51.19h-307.12v51.19h-51.19v51.18h-51.19v102.38 51.18 102.38 102.37 102.37h51.19v51.19z" fill="#120f26"/><path d="m3736.63 614.24v-51.19h51.18v-153.56h-51.18v-51.18h-102.38v-51.19h-102.37v-51.19h102.37v51.19h153.56v-102.37h-51.18v-51.19h-307.12v51.19h-51.19v153.56h51.19v51.18h102.37v51.19h102.37v51.19h-102.37v-51.19h-153.56v102.37h51.19v51.19z" fill="#e22b17"/><path d="m3736.63 511.87v-51.19h51.18v-153.56h-51.18v-51.19h-102.38v-51.18h-102.37v-51.19h102.37v51.19h153.56v-102.38h-51.18v-51.18h-307.12v51.18h-51.19v153.56h51.19v51.19h102.37v51.19h102.37v51.18h-102.37v-51.18h-153.56v102.37h51.19v51.19z" fill="#ffda40"/></g></svg>

<?xml version="1.0" encoding="UTF-8" standalone="no"?>
<svg
   enable-background="new 0 0 3839 665.43"
   height="666"
   viewBox="0 0 3840 666.00001"
   width="3840"
   version="1.1"
   id="svg24"
   sodipodi:docname="auto-allgames.svg"
   inkscape:version="1.3.2 (091e20e, 2023-11-25)"
   xmlns:inkscape="http://www.inkscape.org/namespaces/inkscape"
   xmlns:sodipodi="http://sodipodi.sourceforge.net/DTD/sodipodi-0.dtd"
   xmlns="http://www.w3.org/2000/svg"
   xmlns:svg="http://www.w3.org/2000/svg">
  <defs
     id="defs24" />
  <sodipodi:namedview
     id="namedview24"
     pagecolor="#ffffff"
     bordercolor="#000000"
     borderopacity="0.25"
     inkscape:showpageshadow="2"
     inkscape:pageopacity="0.0"
     inkscape:pagecheckerboard="0"
     inkscape:deskcolor="#d1d1d1"
     inkscape:zoom="0.24557292"
     inkscape:cx="1922.0361"
     inkscape:cy="333.91304"
     inkscape:window-width="1312"
     inkscape:window-height="449"
     inkscape:window-x="0"
     inkscape:window-y="23"
     inkscape:window-maximized="0"
     inkscape:current-layer="svg24" />
  <g
     id="g25"
     transform="scale(1,1.0005959)">
    <g
       transform="scale(1.0002605)"
       id="g24">
      <path
         d="m 1279.67,614.24 h 51.18 V 511.87 409.49 h -51.18 V 358.31 H 1126.11 V 153.56 51.19 h -51.19 V 0 H 921.36 v 51.19 h -51.19 v 102.37 358.31 102.37 h 51.19 v 51.19 h 102.37 51.19 204.75 z"
         fill="#120f26"
         id="path1" />
      <path
         d="M 1074.92,511.87 V 153.56 H 921.36 v 460.68 h 102.37 51.19 204.75 V 511.87 Z"
         fill="#e22b17"
         id="path2" />
      <path
         d="M 1074.92,409.49 V 51.19 H 921.36 v 460.68 h 102.37 51.19 204.75 V 409.49 Z"
         fill="#ffda40"
         id="path3" />
      <path
         d="m 870.17,614.24 h 51.19 V 511.87 409.49 H 870.17 V 358.31 H 716.61 V 153.56 51.19 H 665.43 V 0 H 511.87 v 51.19 h -51.19 v 102.37 358.31 102.37 h 51.19 v 51.19 h 102.37 51.19 204.74 z"
         fill="#120f26"
         id="path4" />
      <path
         d="M 665.43,511.87 V 153.56 H 511.87 v 460.68 h 102.37 51.19 204.74 V 511.87 Z"
         fill="#e22b17"
         id="path5" />
      <path
         d="M 665.43,409.49 V 51.19 H 511.87 v 460.68 h 102.37 51.19 204.74 V 409.49 Z"
         fill="#ffda40"
         id="path6" />
      <path
         d="m 460.68,665.43 v -51.19 h 51.19 V 511.87 204.75 102.37 H 460.68 V 51.19 H 409.49 V 0 H 102.37 V 51.19 H 51.19 v 51.18 H 0 v 102.38 307.12 102.37 h 51.19 v 51.19 h 153.56 v -51.19 h 51.18 51.19 v 51.19 z"
         fill="#120f26"
         id="path7" />
      <path
         d="M 409.49,204.75 V 153.56 H 102.37 v 51.19 H 51.19 V 614.24 H 204.75 V 511.87 H 307.12 V 614.24 H 460.68 V 204.75 Z M 204.75,409.49 V 255.93 h 102.37 v 153.56 z"
         fill="#e22b17"
         id="path8" />
      <path
         d="M 409.49,102.37 V 51.19 H 102.37 v 51.19 H 51.19 V 511.87 H 204.75 V 409.49 H 307.12 V 511.86 H 460.68 V 102.37 Z M 204.75,307.12 V 153.56 h 102.37 v 153.56 z"
         fill="#ffda40"
         id="path9" />
      <path
         d="m 2968.83,665.43 h 102.37 51.19 204.74 v -51.19 h 51.19 V 511.87 409.49 h -51.19 v -51.18 -51.19 -51.19 h 51.19 V 153.56 51.19 h -51.19 V 0 h -204.74 -51.19 -102.37 v 51.19 h -51.19 v 102.37 358.31 102.37 h 51.19 z"
         fill="#120f26"
         id="path10" />
      <path
         d="M 3327.13,255.93 V 153.56 h -204.74 -51.19 -102.37 v 460.68 h 102.37 51.19 204.74 V 511.87 h -204.74 v -51.19 h 153.56 V 358.31 H 3122.39 V 255.93 Z"
         fill="#e22b17"
         id="path11" />
      <path
         d="M 3327.13,153.56 V 51.19 h -204.74 -51.19 -102.37 v 460.68 h 102.37 51.19 204.74 V 409.49 h -204.74 v -51.18 h 153.56 V 255.93 H 3122.39 V 153.56 Z"
         fill="#ffda40"
         id="path12" />
      <path
         d="m 1893.91,563.05 h 51.18 V 460.68 358.31 307.12 255.93 204.75 102.37 h -51.18 V 51.19 h -51.19 V 0 H 1535.6 v 51.19 h -51.19 v 51.18 h -51.18 v 102.38 255.93 102.37 h 51.18 v 51.19 h 51.19 v 51.19 h 307.12 v -51.19 h 51.19 z"
         fill="#120f26"
         id="path13" />
      <path
         d="M 1893.91,307.12 V 204.75 h -51.19 V 153.56 H 1535.6 v 51.19 h -51.19 v 358.3 h 51.19 v 51.19 h 307.12 v -51.19 h 51.19 V 358.31 h -51.19 -102.37 -51.19 v 102.37 h 51.19 v 51.19 H 1637.97 V 255.93 h 102.38 v 51.19 z"
         fill="#e22b17"
         id="path14" />
      <path
         d="M 1893.91,204.75 V 102.37 h -51.19 V 51.19 H 1535.6 v 51.18 h -51.19 v 358.31 h 51.19 v 51.19 h 307.12 v -51.19 h 51.19 V 255.93 h -51.19 -102.37 -51.19 v 102.38 h 51.19 v 51.18 H 1637.97 V 153.56 h 102.38 v 51.19 z"
         fill="#ffda40"
         id="path15" />
      <path
         d="m 2405.77,665.43 h 153.56 v -51.19 h 51.19 V 511.87 h 102.37 v 102.37 h 51.19 v 51.19 h 153.56 v -51.19 h 51.19 V 511.87 153.56 51.19 h -51.19 V 0 h -153.56 v 51.19 h -51.19 v 51.18 51.19 h -51.18 -51.19 V 102.37 51.19 h -51.19 V 0 h -153.56 v 51.19 h -51.18 v 102.37 358.31 102.37 h 51.18 z"
         fill="#120f26"
         id="path16" />
      <path
         d="m 2764.08,153.56 v 102.37 h -51.19 v 51.19 h -102.37 v -51.19 h -51.19 V 153.56 h -153.56 v 460.68 h 153.56 V 409.49 h 51.19 v 51.19 h 102.37 v -51.19 h 51.19 v 204.75 h 153.56 V 153.56 Z"
         fill="#e22b17"
         id="path17" />
      <path
         d="m 2764.08,51.19 v 102.37 h -51.19 v 51.19 h -102.37 v -51.19 h -51.19 V 51.19 h -153.56 v 460.68 h 153.56 V 307.12 h 51.19 v 51.19 h 102.37 v -51.19 h 51.19 v 204.75 h 153.56 V 51.19 Z"
         fill="#ffda40"
         id="path18" />
      <path
         d="m 2354.59,665.43 v -51.19 h 51.18 V 511.87 204.75 102.37 h -51.18 V 51.19 H 2303.4 V 0 h -307.12 v 51.19 h -51.19 v 51.18 h -51.18 v 102.38 307.12 102.37 h 51.18 v 51.19 h 153.56 v -51.19 h 51.19 51.19 v 51.19 z"
         fill="#120f26"
         id="path19" />
      <path
         d="m 2303.4,204.75 v -51.19 h -307.12 v 51.19 h -51.19 v 409.49 h 153.56 V 511.87 h 102.37 v 102.37 h 153.56 V 204.75 Z M 2098.65,409.49 V 255.93 h 102.37 v 153.56 z"
         fill="#e22b17"
         id="path20" />
      <path
         d="M 2303.4,102.37 V 51.19 h -307.12 v 51.19 h -51.19 v 409.49 h 153.56 V 409.49 h 102.37 v 102.37 h 153.56 V 102.37 Z M 2098.65,307.12 V 153.56 h 102.37 v 153.56 z"
         fill="#ffda40"
         id="path21" />
      <path
         d="m 3429.51,614.24 v 51.19 h 307.12 v -51.19 h 51.18 V 563.05 H 3839 V 460.68 409.49 307.12 204.75 102.37 h -51.19 V 51.19 h -51.18 V 0 h -307.12 v 51.19 h -51.19 v 51.18 h -51.19 v 102.38 51.18 102.38 102.37 102.37 h 51.19 v 51.19 z"
         fill="#120f26"
         id="path22" />
      <path
         d="m 3736.63,614.24 v -51.19 h 51.18 V 409.49 h -51.18 v -51.18 h -102.38 v -51.19 h -102.37 v -51.19 h 102.37 v 51.19 h 153.56 V 204.75 h -51.18 v -51.19 h -307.12 v 51.19 h -51.19 v 153.56 h 51.19 v 51.18 h 102.37 v 51.19 h 102.37 v 51.19 h -102.37 v -51.19 h -153.56 v 102.37 h 51.19 v 51.19 z"
         fill="#e22b17"
         id="path23" />
      <path
         d="m 3736.63,511.87 v -51.19 h 51.18 V 307.12 h -51.18 v -51.19 h -102.38 v -51.18 h -102.37 v -51.19 h 102.37 v 51.19 h 153.56 V 102.37 h -51.18 V 51.19 h -307.12 v 51.18 h -51.19 v 153.56 h 51.19 v 51.19 h 102.37 v 51.19 h 102.37 v 51.18 h -102.37 v -51.18 h -153.56 v 102.37 h 51.19 v 51.19 z"
         fill="#ffda40"
         id="path24" />
    </g>
  </g>
</svg>
